X:1
T:Chattanoogie Shoe Shine Boy
T:Chattanoogie Shoe Shine Boy
T:Harry Stone, and Jack Stapp
C:Harry Stone, Jack Stapp
Z:All Rights Reserved
L:1/8
M:4/4
K:C
V:1 treble 
%%MIDI program 4
V:1
 GG |"C" CCEE GG A2 | _B2 G2 E2 ^DE | CCEE GGAG | _B2 G2 E4 |"F" FFAA c2 dc | _ec d2 c2 AG | %7
w: Have you|ev- er passed the corn- er of|fourth and grand where a|lit- tle ball of rhy- thm has a|shoe shine stand-|peo- ple gath- er round and they|clap * their hands he's a|
"C" c2 c2 c2 GA | E4 G2 AG |"G7" BdBG A2 G2 |"F" AcAc e2 c2 |"C" c8- | c6 G2 | CCEE GGAG | %14
w: great big bun- dle of|joy he's pops a|boog- it woog- ie rag the|chat- ta- noo- gie shoe shine|boy|* he|charg- es you a nick- el just to|
 _B2 G2 E2 E2 | CCEE GGAG | _B2 G2 E2 C2 |"F" FFAA ccdd | _e2 c2 c2 AG |"C" c2 c2 c2 GA | %20
w: shine one shoe he|makes the old est kind of leath- er|look like new you|feel as tho you want to dance when|he gets thru he's a|great big bun- dle of|
 E4 G2 AG |"G7" BdBG A2 G2 |"F" AcAc e2 c2 | c8- | c4 c2 A2 |"F" c2 c2 F2 A2 | c2 c2 c2 F2 | %27
w: joy, he pops a|boog- ie woog- ie rag the|chat- ta- noog- ie shoe shine|boy|* its a|won- der that the|rag dont tear the|
"C" G2 G2 A2 A2 | E6 A2 |"D7" c2 c2 ^F2 A2 | c2 c2 c2 Bc |"G7" (3dGG (3GGG (3GGG (3GGG | %32
w: way he makes it|pop you|ought to see him|fan the air with his|hop pi- ty hip- pi- ty hip pi ty hop- pi- ty|
 (3GGG (3GGG G2 G2 |"C" CCEE GGAG | _B2 G2 E2 G2 | CCEE GGAG | B2 G2 E4 |"F" FFAA ccdc | %38
w: hop- pi- ty hip- pi- ty hop, he|o- pens up for bus'- ness when the|clock stikes nine he|likes to get 'em war- ly when they're|feel- in fine|ev- 'ry bod- y gets a lit- tle|
 _ec d2 c2 AG |"C" c2 c2 c2 GA | E4 G2 AG |"G7" BdBA A2 G2 |"F" AcAc e2 c2 |1"C" c8- | c6 GG :|2 %45
w: rise * and shine with the|great big bun- dle of|joy he pops a|boog- ie woog- ie rag the|chat- ta- noog- ie shoe shine|boy|* Have you|
"C" c8- | c2 z2 z4 |] %47
w: boy.||

